X:182
T:Star, The
M:6/8
L:1/8
B:Thompson's Compleat Collection of 200 Favourite Country Dances, vol. 1 (London, 1757)
Z:Transcribed and edited by Flynn Titford-Mock, 2007
Z:abc's:AK/Fiddler's Companion
K:F
c/B/|AFF F2A|BGG G2e|fed cdB|AFF F2::a(f/g/a) F2a|g(e/f/g) E2g|
fef dgf|ecc c3|dBd (g/a/b)B|cAc (f/g/a)A|BAB GcB|AFF F3:|

